X: 1
T: Neverland
C: Daron Douglas
N: For the dance 'Neverland', by Carl Dreher.
R:
S: http://104.169.204.122/ECD/Neverland/Neverland%20%28music%29.pdf 2019-12-1
Z: 2019 John Chambers <jc:trillian.mit.edu>
M: 3/2
L: 1/4
K: D
|:\
"D"AG F2 "A"E2 | "Em"GA "Bm"F4 | "G"Bd cB "D"AF | "Em"GA BG "D"AF |
"G"GF EF ED | "A"A,4 ED | "Em"EG FD ED |1 "A"G2 A2 AB :|2 "A"A4 B2 ||
|:\
"Em"BG Ed cB | "Bm"B2 A3 F | "Em"GF GB AF | "A"EG FE "D"DF | "G"G2 GF ED | "A"E4- EF |
"Em"GE "A"A,2 A,2 | "D"FD A,2 A,2 |1 "G"ED "A"GE DE | "D"F3 G A2 :|2 "G"ED "A"GE CA, | "D"D6 |]
